X: 1
T:Reel
M:C
L:1/8
R:reel
K:D
AFdB ABAF|DFAF E2 EB|AFAd cde/f/d|cABc dcdB|
AFdB ABAF|DFAF E2 EB|AFAd ((3Bcd) ((3efd)|cABc defg||
a2 fd fafd|fafd e2 ef|gfef gbag|fedc defg|
a2 fd fafd|gabg fgaf|gfef gbag|1 fedc dcdB:|2 fedc d2 d2||
